X:53
T:Duke of Leinster (reel), The 
B:CRE1.194 (Diuc Laighean)
F:file ID: cre.1/053duke_L
S:Tommy Potts
M:C
L:1/8
Q:180
R:reel
K:G
D||G3B dBB2|dBeB dBAF|GBB2 GBB2|dBAB GEDE|
G3B dBB2|dBeB dBAF|GABd g3e|dBAF GEE2||
dega bgg/f/g|agbg ageg|dega bage|dBAF GEE2|
dega bgg/f/g|agbg ageg|bgg2 efge|dBAB GEE2||

%%%

